X:44
T:Cuckoo - Hard
%%VWML:SBG-1-2-703-0
F:http://www.vwml.org/record/SBG/1/2/703
Z:Original Sibelius transcriptions by M. & S. Graebe
L:1/8
M:3/4
I:linebreak $
K:F
V:1 treble nm="P1"
V:2 treble 
V:1
 cA F F G A | F G A2 AB | cd cB AG | F2 :| AB c c ef |$ ed c2 AB | c c f2 G2 :| A | F F GA G G | %9
w: |||||||And|when her sings _ Cuckoo _|
w: |||||||||
w: |||||||||
w: |||||||||
w: |||||||||
w: should be 3/4 * * *|||||||||
 AB cd cB | AG F2 z2 |$ f2 c2 z2 | f2 c2 z2 | de | de dc GA | F2 z2 x2 | %16
w: the _ sum- * mer _|draw'th _ near|Cuck- oo!|Cuck- oo!|The _|sum- * mer _ draw'th _|near|
w: |||||||
w: |||||||
w: |||||||
w: |||||||
w: |||||||
V:2
 x6 | x6 | x6 | x2 :| x6 |$ x6 | x6 :| x | x6 | x6 | x6 |$ x6 | x6 | Bc | x c x A x2 | x6 | %16
T:Cuckoo - Langworthy
F:http://www.vwml.org/record/SBG/1/2/703
Z:Original Sibelius transcriptions by M. & S. Graebe
M:3/4
I:linebreak $
K:G
V:1 treble nm="P1"
V:1
 dB | G2 G2 AB | G G G2 Bc | de dc BA | G2 z2 :| Bc | d2 B2 g2 |$ fe d2 Bc | d2 d2 e2 | A2 z2 BA | %10
 G2 G2 AB | G2 G2 Bc | de dc BA | G2 z2 x2 | %14
T:Cuckoo - Lethbridge
F:http://www.vwml.org/record/SBG/1/2/703
Z:Original Sibelius transcriptions by M. & S. Graebe
M:3/4
I:linebreak $
K:E
V:1 treble nm="P1"
V:1
 BG | E2 E2 GE | FF F2 GA | B3/2 c/ BAFG | E4 BG | E2 E2 GE | FF F2 GA |$ B3/2 c/ BAFG | E8 GA | %9
 B2 B2 eB | c2 B2 EG | B2 cBAG | G2 F2 BG |$ E2 E2 GE | F2 F2 GA | B3/2 c/ BAFG | E12 | e B2 z z2 | %18
 e B2 z ec |$ B3/2 c/ BAFG | E8 | e B2 z z2 | e B2 z ec | B3/2 c/ BAFG | E4 x2 | %25

